X: 3521
T: Big Archie
R: reel
M: 4/4
K: Amajor
f3e c2 BA|BA F2F2F2|B2 BA B3 c-|c2 cB ce f2|
f2 fe c2 BA|BA F2F2F2|B2 BA B3 c-|c2 BA BA F2||
f2 fe c2 BA|BA F2F2F2|B2 BA B3 c-|c2 cB ce fa|
f2 fe c2 BA|BA F2F2F2|B2 BA B3 c-|c8||
P:B
cB AF B2 BA|FE F2 E4|B2 BA B3 f-|f2 ec AB ce|
cB AF B2 BA|FE F2 E4|B2 BA B3 c-|c2 BA BA F2||
cB AF B2 BA|FE F2 E4|B2 BA B3 f-|f2 ec AB ce|
cB AF B2 BA|FE F2 E4|1 B2 BA B3 c-|c8||2 B2 BA B3 F-|F8||
P:C
Fc EF A4|AF B4 BA|f2 ec A3 e|c/B/A B3 A FE|
Fc EF A4|Ac B3 A ce|fa ec AB ce|B4-B A FE||
Fc EF A4|Ac B4 BA|f2 ec A3 e|c/B/A B3 A FE|
Fc EF A4|Ac B3 A ce|fa ec AB ce|B8||

